X:1
T:The Two Sisters
M:2/2
L:1/4
K:C
 G| G/2G/2 G/2G/2 B A/2A/2| B d d2| e e G2| A G E2| D/2D/2 G/2G/2 B A/2A/2|\
 B d e3/2 e/2| g g e d| e3 z| e/2e/2 e/2e/2 e d/2d/2| e g g3/2 g/2|\
 e d B G| A G E2| D G G3/2 G/2| G g e3/2 g/2| d B A3/2 A/2| G3||
